X:1

T:Devy Hornpipe

M:C|
L:1/8

R:Hornpipe

S:Kerr – Merry Melodies, vol. 4, No. 293 (c.1880’s)

Z:AK/Fiddler’s Companion

K:G

(dc) | BGBd gdcB | Aaaf gdcB |1 BdBG AcAF | AGFE DFdc :|2 BdBG AcAF |

G2G2G2 ||: (Bc) | dcBA GBdg | e2c2c2 (cd) | edcB Aaag | f2d2d2 (ef) |

gage fgaf | efge dcBA | BdBG AcAF | G2G2G2 :|

                       

DEW DROP HORNPIPE. American, Hornpipe. A Major. Standard tuning. AABB. The ‘B’ part of this melody appears in the tune "Brilliancy." There was a variety house called the Dew Drop In in New York in the Civil War years. Cole (1000 Fiddle Tunes), 1940; pg. 85. Ryan’s Mammoth Collection, 1883; pg. 119.

